X:150
T: Wo treff' ich meinen Schaefer an,
N: D0235B
O: Europa, Mitteleuropa, Deutschland, Harz, St. Andreasberg
N: Keine Variante zu den beiden vorigen Liedern !! (DVA-Signatur 235e)
R: Tanz - Lied
M: 3/4
L: 1/16
K: G
D2 | D2G2G4B4 | B3AA6
B2 | c2e2d4B4 | A4G4z2
D2 | D2G2G4B4 | B3AA6
B2 | c2e2d4B4 | A4G4z4 |
d3BB4A4 | d3cc4B4 |
d3BB4A4 | d3cc4B2
G2 | G2G2G4B4 | B4A4z2
B2 | c2e2d4B4 | A4G4z2

@@@ Tune index: 2672
